assets/i18n/b-nl-dk.svg

<?xml version="1.0" encoding="UTF-8"?>
<svg width="239px" height="24px" viewBox="0 0 239 24" version="1.1" xmlns="http://www.w3.org/2000/svg" xmlns:xlink="http://www.w3.org/1999/xlink">
    <!-- Generator: Sketch 51.3 (57544) - http://www.bohemiancoding.com/sketch -->
    <title>SwG-NL Copy-Black</title>
    <desc>Created with Sketch.</desc>
    <defs></defs>
    <g id="SwG-NL-Copy" stroke="none" stroke-width="1" fill="none" fill-rule="evenodd">
        <path d="M0.276,19 L6.486,2.532 L8.878,2.532 L15.088,19 L12.742,19 L11.155,14.538 L4.232,14.538 L2.622,19 L0.276,19 Z M4.945,12.56 L10.419,12.56 L7.728,5.131 L7.636,5.131 L4.945,12.56 Z M22.75275,19.368 C21.894079,19.368 21.1235867,19.1840018 20.44125,18.816 C19.7589133,18.4479982 19.249085,17.9880028 18.91175,17.436 L18.81975,17.436 L18.81975,19 L16.79575,19 L16.79575,2.532 L18.91175,2.532 L18.91175,7.73 L18.81975,9.294 L18.91175,9.294 C19.249085,8.74199724 19.7589133,8.28200184 20.44125,7.914 C21.1235867,7.54599816 21.894079,7.362 22.75275,7.362 C24.2094239,7.362 25.4667447,7.93699425 26.52475,9.087 C27.5827553,10.2370057 28.11175,11.6629915 28.11175,13.365 C28.11175,15.0670085 27.5827553,16.4929942 26.52475,17.643 C25.4667447,18.7930057 24.2094239,19.368 22.75275,19.368 Z M22.40775,17.436 C23.3890882,17.436 24.2324131,17.0641704 24.93775,16.3205 C25.6430869,15.5768296 25.99575,14.5916728 25.99575,13.365 C25.99575,12.1383272 25.6430869,11.1531704 24.93775,10.4095 C24.2324131,9.66582961 23.3890882,9.294 22.40775,9.294 C21.4110784,9.294 20.5639202,9.66199632 19.86625,10.398 C19.1685798,11.1340037 18.81975,12.1229938 18.81975,13.365 C18.81975,14.6070062 19.1685798,15.5959963 19.86625,16.332 C20.5639202,17.0680037 21.4110784,17.436 22.40775,17.436 Z M31.1765,9.087 C32.2651721,7.93699425 33.6528249,7.362 35.3395,7.362 C37.0261751,7.362 38.4138279,7.93316096 39.5025,9.0755 C40.5911721,10.217839 41.1355,11.6476581 41.1355,13.365 C41.1355,15.0823419 40.5911721,16.512161 39.5025,17.6545 C38.4138279,18.796839 37.0261751,19.368 35.3395,19.368 C33.6528249,19.368 32.2651721,18.796839 31.1765,17.6545 C30.0878279,16.512161 29.5435,15.0823419 29.5435,13.365 C29.5435,11.6476581 30.0878279,10.2216723 31.1765,9.087 Z M32.7405,16.332 C33.4765037,17.0680037 34.3428284,17.436 35.3395,17.436 C36.3361716,17.436 37.198663,17.0641704 37.927,16.3205 C38.655337,15.5768296 39.0195,14.5916728 39.0195,13.365 C39.0195,12.1383272 38.655337,11.1531704 37.927,10.4095 C37.198663,9.66582961 36.3361716,9.294 35.3395,9.294 C34.3428284,9.294 33.480337,9.66582961 32.752,10.4095 C32.023663,11.1531704 31.6595,12.1383272 31.6595,13.365 C31.6595,14.5916728 32.0198297,15.5806629 32.7405,16.332 Z M45.00525,7.73 L45.00525,9.294 L45.09725,9.294 C45.4039182,8.75733065 45.8869134,8.30116854 46.54625,7.9255 C47.2055866,7.54983145 47.9109129,7.362 48.66225,7.362 C50.0575903,7.362 51.1232463,7.79132904 51.85925,8.65 C52.5952537,9.50867096 52.96325,10.6586595 52.96325,12.1 L52.96325,19 L50.84725,19 L50.84725,12.422 C50.84725,10.3366562 49.9195926,9.294 48.06425,9.294 C47.1902456,9.294 46.4772528,9.64282985 45.92525,10.3405 C45.3732472,11.0381702 45.09725,11.8469954 45.09725,12.767 L45.09725,19 L42.98125,19 L42.98125,7.73 L45.00525,7.73 Z M57.615,7.73 L57.615,9.294 L57.707,9.294 C58.0136682,8.75733065 58.4966634,8.30116854 59.156,7.9255 C59.8153366,7.54983145 60.5206629,7.362 61.272,7.362 C62.6673403,7.362 63.7329963,7.79132904 64.469,8.65 C65.2050037,9.50867096 65.573,10.6586595 65.573,12.1 L65.573,19 L63.457,19 L63.457,12.422 C63.457,10.3366562 62.5293426,9.294 60.674,9.294 C59.7999956,9.294 59.0870028,9.64282985 58.535,10.3405 C57.9829972,11.0381702 57.707,11.8469954 57.707,12.767 L57.707,19 L55.591,19 L55.591,7.73 L57.615,7.73 Z M73.30675,19.368 C71.6047415,19.368 70.220922,18.8006723 69.15525,17.666 C68.089578,16.5313277 67.55675,15.0976753 67.55675,13.365 C67.55675,11.7243251 68.0742448,10.3136726 69.10925,9.133 C70.1442552,7.95232743 71.4667419,7.362 73.07675,7.362 C74.7480917,7.362 76.0859116,7.90632789 77.09025,8.995 C78.0945884,10.0836721 78.59675,11.5403242 78.59675,13.365 L78.57375,13.756 L69.67275,13.756 C69.7340836,14.8906723 70.1135798,15.7876634 70.81125,16.447 C71.5089202,17.1063366 72.325412,17.436 73.26075,17.436 C74.7787576,17.436 75.8060806,16.7920064 76.34275,15.504 L78.22875,16.286 C77.8607482,17.1600044 77.2550875,17.8921637 76.41175,18.4825 C75.5684124,19.0728363 74.5334228,19.368 73.30675,19.368 Z M76.34275,12.008 C76.2967498,11.3639968 76.0015861,10.7506696 75.45725,10.168 C74.9129139,9.58533042 74.1040887,9.294 73.03075,9.294 C72.2487461,9.294 71.5702529,9.53933088 70.99525,10.03 C70.4202471,10.5206691 70.0254177,11.1799959 69.81075,12.008 L76.34275,12.008 Z M82.7885,19 L80.6725,19 L80.6725,7.73 L82.6965,7.73 L82.6965,9.57 L82.7885,9.57 C83.0031677,8.9566636 83.4439967,8.45066866 84.111,8.052 C84.7780033,7.65333134 85.4258302,7.454 86.0545,7.454 C86.6831698,7.454 87.2121645,7.54599908 87.6415,7.73 L86.8365,9.708 C86.5604986,9.60066613 86.1848357,9.547 85.7095,9.547 C84.9428295,9.547 84.2643363,9.84983031 83.674,10.4555 C83.0836637,11.0611697 82.7885,11.8546618 82.7885,12.836 L82.7885,19 Z M93.58125,19.368 C91.8792415,19.368 90.495422,18.8006723 89.42975,17.666 C88.364078,16.5313277 87.83125,15.0976753 87.83125,13.365 C87.83125,11.7243251 88.3487448,10.3136726 89.38375,9.133 C90.4187552,7.95232743 91.741242,7.362 93.35125,7.362 C95.0225917,7.362 96.3604116,7.90632789 97.36475,8.995 C98.3690884,10.0836721 98.87125,11.5403242 98.87125,13.365 L98.84825,13.756 L89.94725,13.756 C90.0085836,14.8906723 90.3880798,15.7876634 91.08575,16.447 C91.7834202,17.1063366 92.599912,17.436 93.53525,17.436 C95.0532576,17.436 96.0805807,16.7920064 96.61725,15.504 L98.50325,16.286 C98.1352482,17.1600044 97.5295876,17.8921637 96.68625,18.4825 C95.8429125,19.0728363 94.8079228,19.368 93.58125,19.368 Z M96.61725,12.008 C96.5712498,11.3639968 96.2760861,10.7506696 95.73175,10.168 C95.1874139,9.58533042 94.3785887,9.294 93.30525,9.294 C92.5232461,9.294 91.8447529,9.53933088 91.26975,10.03 C90.6947471,10.5206691 90.2999177,11.1799959 90.08525,12.008 L96.61725,12.008 Z M102.971,7.73 L102.971,9.294 L103.063,9.294 C103.369668,8.75733065 103.852663,8.30116854 104.512,7.9255 C105.171337,7.54983145 105.876663,7.362 106.628,7.362 C108.02334,7.362 109.088996,7.79132904 109.825,8.65 C110.561004,9.50867096 110.929,10.6586595 110.929,12.1 L110.929,19 L108.813,19 L108.813,12.422 C108.813,10.3366562 107.885343,9.294 106.03,9.294 C105.155996,9.294 104.443003,9.64282985 103.891,10.3405 C103.338997,11.0381702 103.063,11.8469954 103.063,12.767 L103.063,19 L100.947,19 L100.947,7.73 L102.971,7.73 Z M118.7605,19 L118.7605,7.73 L120.7845,7.73 L120.7845,9.294 L120.8765,9.294 C121.198502,8.75733065 121.692997,8.30116854 122.36,7.9255 C123.027003,7.54983145 123.690163,7.362 124.3495,7.362 C126.097509,7.362 127.28583,8.08265946 127.9145,9.524 C128.834505,8.08265946 130.145491,7.362 131.8475,7.362 C133.181507,7.362 134.18583,7.78749575 134.8605,8.6385 C135.53517,9.48950426 135.8725,10.6433261 135.8725,12.1 L135.8725,19 L133.7565,19 L133.7565,12.422 C133.7565,11.2873277 133.549502,10.4823357 133.1355,10.007 C132.721498,9.53166429 132.092838,9.294 131.2495,9.294 C130.421496,9.294 129.735336,9.64666314 129.191,10.352 C128.646664,11.0573369 128.3745,11.8623288 128.3745,12.767 L128.3745,19 L126.2585,19 L126.2585,12.422 C126.2585,11.2873277 126.051502,10.4823357 125.6375,10.007 C125.223498,9.53166429 124.594838,9.294 123.7515,9.294 C122.923496,9.294 122.237336,9.64666314 121.693,10.352 C121.148664,11.0573369 120.8765,11.8623288 120.8765,12.767 L120.8765,19 L118.7605,19 Z M143.60625,19.368 C141.904241,19.368 140.520422,18.8006723 139.45475,17.666 C138.389078,16.5313277 137.85625,15.0976753 137.85625,13.365 C137.85625,11.7243251 138.373745,10.3136726 139.40875,9.133 C140.443755,7.95232743 141.766242,7.362 143.37625,7.362 C145.047592,7.362 146.385412,7.90632789 147.38975,8.995 C148.394088,10.0836721 148.89625,11.5403242 148.89625,13.365 L148.87325,13.756 L139.97225,13.756 C140.033584,14.8906723 140.41308,15.7876634 141.11075,16.447 C141.80842,17.1063366 142.624912,17.436 143.56025,17.436 C145.078258,17.436 146.105581,16.7920064 146.64225,15.504 L148.52825,16.286 C148.160248,17.1600044 147.554588,17.8921637 146.71125,18.4825 C145.867912,19.0728363 144.832923,19.368 143.60625,19.368 Z M146.64225,12.008 C146.59625,11.3639968 146.301086,10.7506696 145.75675,10.168 C145.212414,9.58533042 144.403589,9.294 143.33025,9.294 C142.548246,9.294 141.869753,9.53933088 141.29475,10.03 C140.719747,10.5206691 140.324918,11.1799959 140.11025,12.008 L146.64225,12.008 Z M155.503,19.184 C154.322327,19.184 153.421503,18.8696698 152.8005,18.241 C152.179497,17.6123302 151.869,16.7230057 151.869,15.573 L151.869,9.662 L149.891,9.662 L149.891,7.73 L151.869,7.73 L151.869,4.28 L153.985,4.28 L153.985,7.73 L156.745,7.73 L156.745,9.662 L153.985,9.662 L153.985,15.412 C153.985,16.6386728 154.490995,17.252 155.503,17.252 C155.886335,17.252 156.208332,17.1906673 156.469,17.068 L157.205,18.885 C156.744998,19.0843343 156.17767,19.184 155.503,19.184 Z" id="Abonneren-met" fill="#FFFFFF"></path>
        <g id="Group" transform="translate(164.000000, 0.000000)" fill="#FFFFFF" fill-rule="nonzero">
            <path d="M9.36714443,19 C4.27673649,19 0,14.7346939 0,9.5 C0,4.26530612 4.27673649,0 9.36714443,0 C12.185226,0 14.1896362,1.13265306 15.6979052,2.62244898 L13.92172,4.44897959 C12.8401323,3.40816327 11.3715546,2.59183673 9.36714443,2.59183673 C5.646086,2.59183673 2.73869901,5.67346939 2.73869901,9.5 C2.73869901,13.3265306 5.646086,16.4081633 9.36714443,16.4081633 C11.7783903,16.4081633 13.1477398,15.4081633 14.030871,14.5102041 C14.755237,13.7653061 15.2216097,12.7040816 15.4002205,11.244898 L9.36714443,11.244898 L9.36714443,8.64285714 L17.8610805,8.64285714 C17.9503859,9.10204082 18,9.66326531 18,10.2653061 C18,12.2142857 17.4840132,14.622449 15.8169791,16.3367347 C14.1896362,18.0714286 12.1256891,19 9.36714443,19 Z" id="Shape"></path>
            <path d="M32,13 C32,16.4557596 29.3096447,19 26,19 C22.6903553,19 20,16.4557596 20,13 C20,9.52420701 22.6903553,7 26,7 C29.3096447,7 32,9.52420701 32,13 Z M29.3705584,13 C29.3705584,10.836394 27.8071066,9.3639399 26,9.3639399 C24.1928934,9.3639399 22.6294416,10.8464107 22.6294416,13 C22.6294416,15.1335559 24.1928934,16.6360601 26,16.6360601 C27.8071066,16.6360601 29.3705584,15.1435726 29.3705584,13 Z" id="Shape"></path>
            <path d="M45,13 C45,16.4557596 42.3096447,19 39,19 C35.7005076,19 33,16.4557596 33,13 C33,9.52420701 35.6903553,7 39,7 C42.3096447,7 45,9.52420701 45,13 Z M42.3807107,13 C42.3807107,10.836394 40.8172589,9.3639399 39.0101523,9.3639399 C37.2030457,9.3639399 35.6395939,10.8464107 35.6395939,13 C35.6395939,15.1335559 37.2030457,16.6360601 39.0101523,16.6360601 C40.8172589,16.6460768 42.3807107,15.1435726 42.3807107,13 Z" id="Shape"></path>
            <path d="M57,7.3621186 L57,17.8929188 C57,22.228555 54.5013055,24 51.5430809,24 C48.7571802,24 47.0913838,22.0915371 46.45953,20.5354059 L48.6518712,19.6056419 C49.0443864,20.5647668 50.0017406,21.6902706 51.5430809,21.6902706 C53.4386423,21.6902706 54.6066144,20.4864709 54.6066144,18.2452504 L54.6066144,17.4035694 L54.5204526,17.4035694 C53.9556136,18.1180196 52.8642298,18.7345999 51.4952132,18.7345999 C48.6231506,18.7345999 46,16.1801957 46,12.8917674 C46,9.58376511 48.6327241,7 51.4952132,7 C52.8642298,7 53.9556136,7.6263673 54.5204526,8.31145653 L54.6066144,8.31145653 L54.6066144,7.3621186 L57,7.3621186 Z M54.7789382,12.9015544 C54.7789382,10.8364997 53.4290688,9.31951641 51.7154047,9.31951641 C49.97302,9.31951641 48.5178416,10.8267127 48.5178416,12.9015544 C48.5178416,14.9470351 49.97302,16.4346575 51.7154047,16.4346575 C53.4290688,16.4346575 54.7789382,14.9470351 54.7789382,12.9015544 Z" id="Shape"></path>
            <polygon id="Shape" points="63 1 63 19 60 19 60 1"></polygon>
            <path d="M72.8441203,14.9732888 L74.8896992,16.3355593 C74.2278943,17.3171953 72.633546,19 69.8760255,19 C66.4567001,19 64,16.3656093 64,13 C64,9.43405676 66.4867821,7 69.5852325,7 C72.7037375,7 74.2278943,9.47412354 74.7292616,10.8163606 L75,11.4974958 L66.9680948,14.8230384 C67.579763,16.0250417 68.5423883,16.6460768 69.8860529,16.6460768 C71.2297174,16.6460768 72.1622607,15.9749583 72.8441203,14.9732888 Z M66.5369189,12.8096828 L71.911577,10.5859766 C71.6107566,9.83472454 70.72835,9.31385643 69.6754786,9.31385643 C68.331814,9.31385643 66.4667274,10.4958264 66.5369189,12.8096828 Z" id="Shape"></path>
        </g>
    </g>
</svg>

<svg width="239" height="24" viewBox="0 0 239 24" xmlns="http://www.w3.org/2000/svg"><title>SwG-NL-Black</title><desc>Created with Sketch.</desc><g fill="none"><path d="M.276 19l6.21-16.468h2.392l6.21 16.468h-2.346l-1.587-4.462h-6.923l-1.61 4.462h-2.346zm4.669-6.44h5.474l-2.691-7.429h-.092l-2.691 7.429zm17.808 6.808c-.859 0-1.629-.184-2.311-.552-.682-.368-1.192-.828-1.529-1.38h-.092v1.564h-2.024v-16.468h2.116v5.198l-.092 1.564h.092c.337-.552.847-1.012 1.529-1.38.682-.368 1.453-.552 2.311-.552 1.457 0 2.714.575 3.772 1.725 1.058 1.15 1.587 2.576 1.587 4.278 0 1.702-.529 3.128-1.587 4.278-1.058 1.15-2.315 1.725-3.772 1.725zm-.345-1.932c.981 0 1.825-.372 2.53-1.116.705-.744 1.058-1.729 1.058-2.955 0-1.227-.353-2.212-1.058-2.956-.705-.744-1.549-1.115-2.53-1.115-.997 0-1.844.368-2.541 1.104-.698.736-1.047 1.725-1.047 2.967s.349 2.231 1.047 2.967c.698.736 1.545 1.104 2.541 1.104zm8.769-8.349c1.089-1.15 2.476-1.725 4.163-1.725 1.687 0 3.074.571 4.163 1.713 1.089 1.142 1.633 2.572 1.633 4.29 0 1.717-.544 3.147-1.633 4.289s-2.476 1.713-4.163 1.713c-1.687 0-3.074-.571-4.163-1.713-1.089-1.142-1.633-2.572-1.633-4.289 0-1.717.544-3.143 1.633-4.278zm1.564 7.245c.736.736 1.602 1.104 2.599 1.104.997 0 1.859-.372 2.587-1.116.728-.744 1.093-1.729 1.093-2.955 0-1.227-.364-2.212-1.093-2.956-.728-.744-1.591-1.115-2.587-1.115-.997 0-1.859.372-2.587 1.115-.728.744-1.093 1.729-1.093 2.956 0 1.227.36 2.216 1.081 2.967zm12.265-8.602v1.564h.092c.307-.537.79-.993 1.449-1.369s1.365-.564 2.116-.564c1.395 0 2.461.429 3.197 1.288.736.859 1.104 2.009 1.104 3.45v6.9h-2.116v-6.578c0-2.085-.928-3.128-2.783-3.128-.874 0-1.587.349-2.139 1.046-.552.698-.828 1.506-.828 2.426v6.233h-2.116v-11.27h2.024zm12.61 0v1.564h.092c.307-.537.79-.993 1.449-1.369s1.365-.564 2.116-.564c1.395 0 2.461.429 3.197 1.288.736.859 1.104 2.009 1.104 3.45v6.9h-2.116v-6.578c0-2.085-.928-3.128-2.783-3.128-.874 0-1.587.349-2.139 1.046-.552.698-.828 1.506-.828 2.426v6.233h-2.116v-11.27h2.024zm15.692 11.638c-1.702 0-3.086-.567-4.151-1.702-1.066-1.135-1.599-2.568-1.599-4.301 0-1.641.517-3.051 1.553-4.232 1.035-1.181 2.357-1.771 3.968-1.771 1.671 0 3.009.544 4.013 1.633s1.507 2.545 1.507 4.37l-.023.391h-8.901c.061 1.135.441 2.032 1.139 2.691.698.659 1.514.989 2.45.989 1.518 0 2.545-.644 3.082-1.932l1.886.782c-.368.874-.974 1.606-1.817 2.197-.843.59-1.878.885-3.105.885zm3.036-7.36c-.046-.644-.341-1.257-.885-1.84-.544-.583-1.353-.874-2.427-.874-.782 0-1.46.245-2.035.736-.575.491-.97 1.15-1.184 1.978h6.532zm6.446 6.992h-2.116v-11.27h2.024v1.84h.092c.215-.613.655-1.119 1.323-1.518.667-.399 1.315-.598 1.944-.598s1.158.092 1.587.276l-.805 1.978c-.276-.107-.652-.161-1.127-.161-.767 0-1.445.303-2.035.909-.59.606-.886 1.399-.886 2.38v6.164zm10.793.368c-1.702 0-3.086-.567-4.151-1.702-1.066-1.135-1.599-2.568-1.599-4.301 0-1.641.517-3.051 1.553-4.232 1.035-1.181 2.357-1.771 3.967-1.771 1.671 0 3.009.544 4.014 1.633 1.004 1.089 1.507 2.545 1.507 4.37l-.023.391h-8.901c.061 1.135.441 2.032 1.139 2.691.698.659 1.514.989 2.45.989 1.518 0 2.545-.644 3.082-1.932l1.886.782c-.368.874-.974 1.606-1.817 2.197-.843.59-1.878.885-3.105.885zm3.036-7.36c-.046-.644-.341-1.257-.885-1.84-.544-.583-1.353-.874-2.427-.874-.782 0-1.46.245-2.035.736-.575.491-.97 1.15-1.184 1.978h6.532zm6.354-4.278v1.564h.092c.307-.537.79-.993 1.449-1.369s1.365-.564 2.116-.564c1.395 0 2.461.429 3.197 1.288.736.859 1.104 2.009 1.104 3.45v6.9h-2.116v-6.578c0-2.085-.928-3.128-2.783-3.128-.874 0-1.587.349-2.139 1.046-.552.698-.828 1.506-.828 2.426v6.233h-2.116v-11.27h2.024zm15.789 11.27v-11.27h2.024v1.564h.092c.322-.537.816-.993 1.484-1.369.667-.376 1.33-.564 1.99-.564 1.748 0 2.936.721 3.565 2.162.92-1.441 2.231-2.162 3.933-2.162 1.334 0 2.338.425 3.013 1.277.675.851 1.012 2.005 1.012 3.461v6.9h-2.116v-6.578c0-1.135-.207-1.94-.621-2.415-.414-.475-1.043-.713-1.886-.713-.828 0-1.514.353-2.059 1.058-.544.705-.816 1.51-.816 2.415v6.233h-2.116v-6.578c0-1.135-.207-1.94-.621-2.415-.414-.475-1.043-.713-1.886-.713-.828 0-1.514.353-2.058 1.058-.544.705-.817 1.51-.817 2.415v6.233h-2.116zm24.846.368c-1.702 0-3.086-.567-4.151-1.702-1.066-1.135-1.599-2.568-1.599-4.301 0-1.641.517-3.051 1.553-4.232 1.035-1.181 2.357-1.771 3.968-1.771 1.671 0 3.009.544 4.013 1.633s1.507 2.545 1.507 4.37l-.023.391h-8.901c.061 1.135.441 2.032 1.138 2.691.698.659 1.514.989 2.45.989 1.518 0 2.545-.644 3.082-1.932l1.886.782c-.368.874-.974 1.606-1.817 2.197-.843.59-1.878.885-3.105.885zm3.036-7.36c-.046-.644-.341-1.257-.885-1.84-.544-.583-1.353-.874-2.427-.874-.782 0-1.46.245-2.036.736-.575.491-.97 1.15-1.184 1.978h6.532zm8.861 7.176c-1.181 0-2.081-.314-2.702-.943s-.931-1.518-.931-2.668v-5.911h-1.978v-1.932h1.978v-3.45h2.116v3.45h2.76v1.932h-2.76v5.75c0 1.227.506 1.84 1.518 1.84.383 0 .705-.061.966-.184l.736 1.817c-.46.199-1.027.299-1.702.299z" fill="#fff"/><g fill-rule="nonzero"><path d="M173.367 19c-5.09 0-9.367-4.265-9.367-9.5s4.277-9.5 9.367-9.5c2.818 0 4.822 1.133 6.331 2.622l-1.776 1.827c-1.082-1.041-2.55-1.857-4.555-1.857-3.721 0-6.628 3.082-6.628 6.908 0 3.827 2.907 6.908 6.628 6.908 2.411 0 3.781-1 4.664-1.898.724-.745 1.191-1.806 1.369-3.265h-6.033v-2.602h8.494c.089.459.139 1.02.139 1.622 0 1.949-.516 4.357-2.183 6.071-1.627 1.735-3.691 2.663-6.45 2.663z" id="Shape" fill="#4285F4"/><path d="M196 13c0 3.456-2.69 6-6 6s-6-2.544-6-6c0-3.476 2.69-6 6-6s6 2.524 6 6zm-2.629 0c0-2.164-1.563-3.636-3.371-3.636-1.807 0-3.371 1.482-3.371 3.636 0 2.134 1.563 3.636 3.371 3.636 1.807 0 3.371-1.492 3.371-3.636z" id="Shape" fill="#E94235"/><path d="M209 13c0 3.456-2.69 6-6 6-3.299 0-6-2.544-6-6 0-3.476 2.69-6 6-6s6 2.524 6 6zm-2.619 0c0-2.164-1.563-3.636-3.371-3.636-1.807 0-3.371 1.482-3.371 3.636 0 2.134 1.563 3.636 3.371 3.636 1.807.01 3.371-1.492 3.371-3.636z" id="Shape" fill="#FABB05"/><path d="M221 7.362v10.531c0 4.336-2.499 6.107-5.457 6.107-2.786 0-4.452-1.908-5.084-3.465l2.192-.93c.393.959 1.35 2.085 2.891 2.085 1.896 0 3.064-1.204 3.064-3.445v-.842h-.086c-.565.714-1.656 1.331-3.025 1.331-2.872 0-5.495-2.554-5.495-5.843 0-3.308 2.633-5.892 5.495-5.892 1.369 0 2.46.626 3.025 1.311h.086v-.949h2.393zm-2.221 5.539c0-2.065-1.35-3.582-3.064-3.582-1.742 0-3.198 1.507-3.198 3.582 0 2.045 1.455 3.533 3.198 3.533 1.714 0 3.064-1.488 3.064-3.533z" id="Shape" fill="#4285F4"/><path id="Shape" fill="#34A853" d="M227 1v18h-3v-18z"/><path d="M236.844 14.973l2.046 1.362c-.662.982-2.256 2.664-5.014 2.664-3.419 0-5.876-2.634-5.876-6 0-3.566 2.487-6 5.585-6 3.119 0 4.643 2.474 5.144 3.816l.271.681-8.032 3.326c.612 1.202 1.574 1.823 2.918 1.823s2.276-.671 2.958-1.673zm-6.307-2.164l5.375-2.224c-.301-.751-1.183-1.272-2.236-1.272-1.344 0-3.209 1.182-3.139 3.496z" fill="#E94235"/></g></g></svg>
